gate-or.svg

<svg fill="currentColor" viewBox="0 0 24 24"><path d="M2 4c3 6 3 10 0 16h6c5 0 11-4 14-8-3-4-9-8-14-8zm3 2h3c3.5 0 8.3 3 11.3 6-3 3-7.8 6-11.3 6H5c1.4-4.1 1.4-7.9 0-12"/></svg>

<svg  viewBox="0 0 24 24" fill="currentColor"><path  d="M2,4C5,10 5,14 2,20H8C13,20 19,16 22,12C19,8 13,4 8,4H2M5,6H8C11.5,6 16.3,9 19.3,12C16.3,15 11.5,18 8,18H5C6.4,13.9 6.4,10.1 5,6Z"/></svg>
